packages/ffe-icons/icons/filled/md/safety_divider.svg

<svg xmlns="http://www.w3.org/2000/svg" height="24" viewBox="0 -960 960 960" width="24"><path d="M480-210.001q-12.769 0-21.384-8.615T450.001-240v-480q0-12.769 8.615-21.384T480-749.999q12.769 0 21.384 8.615T509.999-720v480q0 12.769-8.615 21.384T480-210.001Zm-430-120v-14.922q0-20.538 11.462-37.269 11.462-16.73 31.384-25.577 24.847-11 51.577-16.615 26.731-5.615 55.577-5.615 28.846 0 55.577 5.615 26.73 5.615 51.577 16.615 19.922 8.847 31.384 25.577 11.461 16.731 11.461 37.269v14.922H50.001Zm560.001 0v-14.922q0-20.538 11.461-37.269 11.462-16.73 31.384-25.577 24.847-11 51.577-16.615 26.731-5.615 55.577-5.615 28.846 0 55.577 5.615 26.73 5.615 51.577 16.615 19.922 8.847 31.384 25.577 11.461 16.731 11.461 37.269v14.922H610.001ZM200-490.001q-29.154 0-49.576-20.423-20.423-20.422-20.423-49.576t20.423-49.576q20.422-20.423 49.576-20.423t49.576 20.423q20.423 20.422 20.423 49.576t-20.423 49.576Q229.154-490.001 200-490.001Zm560 0q-29.154 0-49.576-20.423-20.423-20.422-20.423-49.576t20.423-49.576q20.422-20.423 49.576-20.423t49.576 20.423q20.423 20.422 20.423 49.576t-20.423 49.576Q789.154-490.001 760-490.001Z"/></svg>

<svg xmlns="http://www.w3.org/2000/svg" height="24" viewBox="0 -960 960 960" width="24"><path d="M480-210q-12.77 0-21.38-8.62Q450-227.23 450-240v-480q0-12.77 8.62-21.38Q467.23-750 480-750t21.38 8.62Q510-732.77 510-720v480q0 12.77-8.62 21.38Q492.77-210 480-210ZM50-330v-14.92q0-20.54 11.46-37.27 11.46-16.73 31.39-25.58 24.84-11 51.57-16.61Q171.15-430 200-430q28.85 0 55.58 5.62 26.73 5.61 51.57 16.61 19.93 8.85 31.39 25.58Q350-365.46 350-344.92V-330H50Zm560 0v-14.92q0-20.54 11.46-37.27 11.46-16.73 31.39-25.58 24.84-11 51.57-16.61Q731.15-430 760-430q28.85 0 55.58 5.62 26.73 5.61 51.57 16.61 19.93 8.85 31.39 25.58Q910-365.46 910-344.92V-330H610ZM200-490q-29.15 0-49.58-20.42Q130-530.85 130-560t20.42-49.58Q170.85-630 200-630t49.58 20.42Q270-589.15 270-560t-20.42 49.58Q229.15-490 200-490Zm560 0q-29.15 0-49.58-20.42Q690-530.85 690-560t20.42-49.58Q730.85-630 760-630t49.58 20.42Q830-589.15 830-560t-20.42 49.58Q789.15-490 760-490Z"/></svg>
